X:258
T: Courtnay's Favorite
N: O'Farrell's Pocket Companion v.3 (Sky ed. p.115)
N: "Irish"
M: 6/8
L: 1/8
R: jig
Q: 320
K: D
A| d2d dcd| efe efg| f2d dfd| ede ABc|
d2d dcd| efe efg| fad edc| d3 d2 :|
f/g/| aba f2f| gfg e2g| fdd fdd| cde A2 f/g/|
aba f2f| gfg e2g| fag fed| a3 a2 :|
